blog/2022/09-22-cloud-resources-they-have-a-lot-in-common/img/volume-kinds.svg

<?xml version="1.0" encoding="UTF-8" standalone="no"?><svg xmlns="http://www.w3.org/2000/svg" xmlns:xlink="http://www.w3.org/1999/xlink" contentScriptType="application/ecmascript" contentStyleType="text/css" height="599px" preserveAspectRatio="none" style="width:810px;height:599px;background:#00000000;" version="1.1" viewBox="0 0 810 599" width="810px" zoomAndPan="magnify"><defs/><g><!--MD5=[7f0ecf5f554433d3f2e1213379ac821c]
class resource--><rect codeLine="24" fill="#3D176E" height="39.7891" id="resource" rx="2.5" ry="2.5" style="stroke:#000D19;stroke-width:1.5;" width="113" x="7" y="326.5"/><ellipse cx="22" cy="346.3945" fill="#E98DF7" rx="11" ry="11" style="stroke:#000D19;stroke-width:1.0;"/><path d="M24.9688,352.0352 Q24.3906,352.332 23.75,352.4727 Q23.1094,352.6289 22.4063,352.6289 Q19.9063,352.6289 18.5781,350.9883 Q17.2656,349.332 17.2656,346.207 Q17.2656,343.082 18.5781,341.4258 Q19.9063,339.7695 22.4063,339.7695 Q23.1094,339.7695 23.75,339.9258 Q24.4063,340.082 24.9688,340.3789 L24.9688,343.0977 Q24.3438,342.5195 23.75,342.2539 Q23.1563,341.9727 22.5313,341.9727 Q21.1875,341.9727 20.5,343.0508 Q19.8125,344.1133 19.8125,346.207 Q19.8125,348.3008 20.5,349.3789 Q21.1875,350.4414 22.5313,350.4414 Q23.1563,350.4414 23.75,350.1758 Q24.3438,349.8945 24.9688,349.3164 L24.9688,352.0352 Z " fill="#000000"/><text fill="#D9B8FF" font-family="Helvetica" font-size="17" lengthAdjust="spacing" textLength="71" x="41" y="352.2798">resource</text><!--MD5=[0c8b414976a9a2e585b005b662babc37]
class aws_ec2_volume--><rect codeLine="26" fill="#3D176E" height="207.4219" id="aws_ec2_volume" rx="2.5" ry="2.5" style="stroke:#000D19;stroke-width:1.5;" width="336" x="467" y="7"/><ellipse cx="554.25" cy="26.8945" fill="#E98DF7" rx="11" ry="11" style="stroke:#000D19;stroke-width:1.0;"/><path d="M557.2188,32.5352 Q556.6406,32.832 556,32.9727 Q555.3594,33.1289 554.6563,33.1289 Q552.1563,33.1289 550.8281,31.4883 Q549.5156,29.832 549.5156,26.707 Q549.5156,23.582 550.8281,21.9258 Q552.1563,20.2695 554.6563,20.2695 Q555.3594,20.2695 556,20.4258 Q556.6563,20.582 557.2188,20.8789 L557.2188,23.5977 Q556.5938,23.0195 556,22.7539 Q555.4063,22.4727 554.7813,22.4727 Q553.4375,22.4727 552.75,23.5508 Q552.0625,24.6133 552.0625,26.707 Q552.0625,28.8008 552.75,29.8789 Q553.4375,30.9414 554.7813,30.9414 Q555.4063,30.9414 556,30.6758 Q556.5938,30.3945 557.2188,29.8164 L557.2188,32.5352 Z " fill="#000000"/><text fill="#D9B8FF" font-family="Helvetica" font-size="17" lengthAdjust="spacing" textLength="143" x="579.75" y="32.7798">aws_ec2_volume</text><line style="stroke:#000D19;stroke-width:1.5;" x1="468" x2="802" y1="46.7891" y2="46.7891"/><text fill="#D9B8FF" font-family="sans-serif" font-size="11" font-weight="bold" lengthAdjust="spacing" textLength="132" x="478" y="65.9995">volume_attachments</text><text fill="#D9B8FF" font-family="sans-serif" font-size="11" lengthAdjust="spacing" textLength="182" x="610" y="65.9995">: aws_ec2_volume_attachment[]</text><text fill="#D9B8FF" font-family="sans-serif" font-size="11" font-weight="bold" lengthAdjust="spacing" textLength="108" x="478" y="88.8042">availability_zone</text><text fill="#D9B8FF" font-family="sans-serif" font-size="11" lengthAdjust="spacing" textLength="41" x="586" y="88.8042">: string</text><text fill="#D9B8FF" font-family="sans-serif" font-size="11" font-weight="bold" lengthAdjust="spacing" textLength="123" x="478" y="111.6089">volume_kms_key_id</text><text fill="#D9B8FF" font-family="sans-serif" font-size="11" lengthAdjust="spacing" textLength="41" x="601" y="111.6089">: string</text><text fill="#D9B8FF" font-family="sans-serif" font-size="11" font-weight="bold" lengthAdjust="spacing" textLength="128" x="478" y="134.4136">volume_outpost_arn</text><text fill="#D9B8FF" font-family="sans-serif" font-size="11" lengthAdjust="spacing" textLength="41" x="606" y="134.4136">: string</text><text fill="#D9B8FF" font-family="sans-serif" font-size="11" font-weight="bold" lengthAdjust="spacing" textLength="129" x="478" y="157.2183">volume_snapshot_id</text><text fill="#D9B8FF" font-family="sans-serif" font-size="11" lengthAdjust="spacing" textLength="41" x="607" y="157.2183">: string</text><text fill="#D9B8FF" font-family="sans-serif" font-size="11" font-weight="bold" lengthAdjust="spacing" textLength="137" x="478" y="180.0229">volume_fast_restored</text><text fill="#D9B8FF" font-family="sans-serif" font-size="11" lengthAdjust="spacing" textLength="53" x="615" y="180.0229">: boolean</text><text fill="#D9B8FF" font-family="sans-serif" font-size="11" font-weight="bold" lengthAdjust="spacing" textLength="189" x="478" y="202.8276">volume_multi_attach_enabled</text><text fill="#D9B8FF" font-family="sans-serif" font-size="11" lengthAdjust="spacing" textLength="53" x="667" y="202.8276">: boolean</text><!--MD5=[377914defea557e9612d777552f01035]
class volume--><rect codeLine="35" fill="#3D176E" height="39.7891" id="volume" rx="2.5" ry="2.5" style="stroke:#000D19;stroke-width:1.5;" width="105" x="241" y="326.5"/><ellipse cx="256" cy="346.3945" fill="#E98DF7" rx="11" ry="11" style="stroke:#000D19;stroke-width:1.0;"/><path d="M258.9688,352.0352 Q258.3906,352.332 257.75,352.4727 Q257.1094,352.6289 256.4063,352.6289 Q253.9063,352.6289 252.5781,350.9883 Q251.2656,349.332 251.2656,346.207 Q251.2656,343.082 252.5781,341.4258 Q253.9063,339.7695 256.4063,339.7695 Q257.1094,339.7695 257.75,339.9258 Q258.4063,340.082 258.9688,340.3789 L258.9688,343.0977 Q258.3438,342.5195 257.75,342.2539 Q257.1563,341.9727 256.5313,341.9727 Q255.1875,341.9727 254.5,343.0508 Q253.8125,344.1133 253.8125,346.207 Q253.8125,348.3008 254.5,349.3789 Q255.1875,350.4414 256.5313,350.4414 Q257.1563,350.4414 257.75,350.1758 Q258.3438,349.8945 258.9688,349.3164 L258.9688,352.0352 Z " fill="#000000"/><text fill="#D9B8FF" font-family="Helvetica" font-size="17" lengthAdjust="spacing" textLength="63" x="275" y="352.2798">volume</text><!--MD5=[b72d563ba2de8ea3b7970681f1fe7854]
class gcp_disk--><rect codeLine="37" fill="#3D176E" height="93.3984" id="gcp_disk" rx="2.5" ry="2.5" style="stroke:#000D19;stroke-width:1.5;" width="227" x="521.5" y="249"/><ellipse cx="590.75" cy="268.8945" fill="#E98DF7" rx="11" ry="11" style="stroke:#000D19;stroke-width:1.0;"/><path d="M593.7188,274.5352 Q593.1406,274.832 592.5,274.9727 Q591.8594,275.1289 591.1563,275.1289 Q588.6563,275.1289 587.3281,273.4883 Q586.0156,271.832 586.0156,268.707 Q586.0156,265.582 587.3281,263.9258 Q588.6563,262.2695 591.1563,262.2695 Q591.8594,262.2695 592.5,262.4258 Q593.1563,262.582 593.7188,262.8789 L593.7188,265.5977 Q593.0938,265.0195 592.5,264.7539 Q591.9063,264.4727 591.2813,264.4727 Q589.9375,264.4727 589.25,265.5508 Q588.5625,266.6133 588.5625,268.707 Q588.5625,270.8008 589.25,271.8789 Q589.9375,272.9414 591.2813,272.9414 Q591.9063,272.9414 592.5,272.6758 Q593.0938,272.3945 593.7188,271.8164 L593.7188,274.5352 Z " fill="#000000"/><text fill="#D9B8FF" font-family="Helvetica" font-size="17" lengthAdjust="spacing" textLength="70" x="616.25" y="274.7798">gcp_disk</text><line style="stroke:#000D19;stroke-width:1.5;" x1="522.5" x2="747.5" y1="288.7891" y2="288.7891"/><text fill="#D9B8FF" font-family="sans-serif" font-size="11" font-weight="bold" lengthAdjust="spacing" textLength="144" x="532.5" y="307.9995">last_attach_timestamp</text><text fill="#D9B8FF" font-family="sans-serif" font-size="11" lengthAdjust="spacing" textLength="58" x="676.5" y="307.9995">: datetime</text><text fill="#D9B8FF" font-family="sans-serif" font-size="11" font-weight="bold" lengthAdjust="spacing" textLength="147" x="532.5" y="330.8042">last_detach_timestamp</text><text fill="#D9B8FF" font-family="sans-serif" font-size="11" lengthAdjust="spacing" textLength="58" x="679.5" y="330.8042">: datetime</text><!--MD5=[6f8541b6a19cc95191cd6e98c4747722]
class kubernetes_persistent_volume--><rect codeLine="41" fill="#3D176E" height="39.7891" id="kubernetes_persistent_volume" rx="2.5" ry="2.5" style="stroke:#000D19;stroke-width:1.5;" width="300" x="485" y="377.5"/><ellipse cx="500" cy="397.3945" fill="#E98DF7" rx="11" ry="11" style="stroke:#000D19;stroke-width:1.0;"/><path d="M502.9688,403.0352 Q502.3906,403.332 501.75,403.4727 Q501.1094,403.6289 500.4063,403.6289 Q497.9063,403.6289 496.5781,401.9883 Q495.2656,400.332 495.2656,397.207 Q495.2656,394.082 496.5781,392.4258 Q497.9063,390.7695 500.4063,390.7695 Q501.1094,390.7695 501.75,390.9258 Q502.4063,391.082 502.9688,391.3789 L502.9688,394.0977 Q502.3438,393.5195 501.75,393.2539 Q501.1563,392.9727 500.5313,392.9727 Q499.1875,392.9727 498.5,394.0508 Q497.8125,395.1133 497.8125,397.207 Q497.8125,399.3008 498.5,400.3789 Q499.1875,401.4414 500.5313,401.4414 Q501.1563,401.4414 501.75,401.1758 Q502.3438,400.8945 502.9688,400.3164 L502.9688,403.0352 Z " fill="#000000"/><text fill="#D9B8FF" font-family="Helvetica" font-size="17" lengthAdjust="spacing" textLength="258" x="519" y="403.2798">kubernetes_persistent_volume</text><!--MD5=[3b09a27d5c2b379405c9ecb6cd9106d4]
class digitalocean_volume--><rect codeLine="43" fill="#3D176E" height="139.0078" id="digitalocean_volume" rx="2.5" ry="2.5" style="stroke:#000D19;stroke-width:1.5;" width="215" x="527.5" y="453"/><ellipse cx="542.5" cy="472.8945" fill="#E98DF7" rx="11" ry="11" style="stroke:#000D19;stroke-width:1.0;"/><path d="M545.4688,478.5352 Q544.8906,478.832 544.25,478.9727 Q543.6094,479.1289 542.9063,479.1289 Q540.4063,479.1289 539.0781,477.4883 Q537.7656,475.832 537.7656,472.707 Q537.7656,469.582 539.0781,467.9258 Q540.4063,466.2695 542.9063,466.2695 Q543.6094,466.2695 544.25,466.4258 Q544.9063,466.582 545.4688,466.8789 L545.4688,469.5977 Q544.8438,469.0195 544.25,468.7539 Q543.6563,468.4727 543.0313,468.4727 Q541.6875,468.4727 541,469.5508 Q540.3125,470.6133 540.3125,472.707 Q540.3125,474.8008 541,475.8789 Q541.6875,476.9414 543.0313,476.9414 Q543.6563,476.9414 544.25,476.6758 Q544.8438,476.3945 545.4688,475.8164 L545.4688,478.5352 Z " fill="#000000"/><text fill="#D9B8FF" font-family="Helvetica" font-size="17" lengthAdjust="spacing" textLength="173" x="561.5" y="478.7798">digitalocean_volume</text><line style="stroke:#000D19;stroke-width:1.5;" x1="528.5" x2="741.5" y1="492.7891" y2="492.7891"/><text fill="#D9B8FF" font-family="sans-serif" font-size="11" font-weight="bold" lengthAdjust="spacing" textLength="72" x="538.5" y="511.9995">description</text><text fill="#D9B8FF" font-family="sans-serif" font-size="11" lengthAdjust="spacing" textLength="41" x="610.5" y="511.9995">: string</text><text fill="#D9B8FF" font-family="sans-serif" font-size="11" font-weight="bold" lengthAdjust="spacing" textLength="100" x="538.5" y="534.8042">filesystem_type</text><text fill="#D9B8FF" font-family="sans-serif" font-size="11" lengthAdjust="spacing" textLength="41" x="638.5" y="534.8042">: string</text><text fill="#D9B8FF" font-family="sans-serif" font-size="11" font-weight="bold" lengthAdjust="spacing" textLength="104" x="538.5" y="557.6089">filesystem_label</text><text fill="#D9B8FF" font-family="sans-serif" font-size="11" lengthAdjust="spacing" textLength="41" x="642.5" y="557.6089">: string</text><text fill="#D9B8FF" font-family="sans-serif" font-size="11" font-weight="bold" lengthAdjust="spacing" textLength="100" x="538.5" y="580.4136">ondemand_cost</text><text fill="#D9B8FF" font-family="sans-serif" font-size="11" lengthAdjust="spacing" textLength="46" x="638.5" y="580.4136">: double</text><!--MD5=[643eeab1204dc44c0a75b50ac445c508]
reverse link volume to aws_ec2_volume--><path codeLine="49" d="M340.04,314.84 C377.44,288.85 432.6,250.5 485.07,214.03 " fill="none" id="volume-backto-aws_ec2_volume" style="stroke:#FFAF37;stroke-width:2.0;"/><polygon fill="none" points="343.86,320.71,323.45,326.38,335.87,309.22,343.86,320.71" style="stroke:#FFAF37;stroke-width:2.0;"/><!--MD5=[14bde95197a4d9e34b3c6fec8235f531]
reverse link resource to volume--><path codeLine="50" d="M140.57,346.5 C173.51,346.5 211.21,346.5 240.81,346.5 " fill="none" id="resource-backto-volume" style="stroke:#FFAF37;stroke-width:2.0;"/><polygon fill="none" points="140.28,353.5,120.28,346.5,140.28,339.5,140.28,353.5" style="stroke:#FFAF37;stroke-width:2.0;"/><!--MD5=[f1cc1043d94c61b26a5913ec3e82eb04]
reverse link volume to gcp_disk--><path codeLine="51" d="M366,335.76 C411.04,328.99 470.16,320.11 521.4,312.41 " fill="none" id="volume-backto-gcp_disk" style="stroke:#FFAF37;stroke-width:2.0;"/><polygon fill="none" points="366.88,342.71,346.06,338.75,364.8,328.86,366.88,342.71" style="stroke:#FFAF37;stroke-width:2.0;"/><!--MD5=[a53fb8ad200e3868a24889c8883d5bdf]
reverse link volume to kubernetes_persistent_volume--><path codeLine="52" d="M366.03,357.25 C405.14,363.12 454.84,370.59 500.79,377.49 " fill="none" id="volume-backto-kubernetes_persistent_volume" style="stroke:#FFAF37;stroke-width:2.0;"/><polygon fill="none" points="364.8,364.14,346.06,354.25,366.88,350.29,364.8,364.14" style="stroke:#FFAF37;stroke-width:2.0;"/><!--MD5=[2814547def82af9be5b9536ef9e12100]
reverse link volume to digitalocean_volume--><path codeLine="53" d="M350.94,375.76 C398.84,400.59 468.9,436.91 527.34,467.2 " fill="none" id="volume-backto-digitalocean_volume" style="stroke:#FFAF37;stroke-width:2.0;"/><polygon fill="none" points="347.65,381.94,333.11,366.52,354.09,369.51,347.65,381.94" style="stroke:#FFAF37;stroke-width:2.0;"/><!--MD5=[9b487e684593ad750639ec788f5b6e2a]
@startuml
left to right direction 
hide empty members
skinparam ArrowColor #ffaf37
skinparam ArrowFontColor #ffaf37
skinparam ArrowFontName Helvetica
skinparam ArrowThickness 2
skinparam BackgroundColor transparent
skinparam ClassAttributeFontColor #d9b8ff
skinparam ClassBackgroundColor #3d176e
skinparam ClassBorderColor #000d19
skinparam ClassFontColor #d9b8ff
skinparam ClassFontName Helvetica
skinparam ClassFontSize 17
skinparam NoteBackgroundColor #d9b8ff
skinparam NoteBorderColor #000d19
skinparam NoteFontColor #3d176e
skinparam NoteFontName Helvetica
skinparam Padding 5
skinparam RoundCorner 5
skinparam Shadowing false
skinparam stereotypeCBackgroundColor #e98df7
skinparam stereotypeIBackgroundColor #e98df7

class resource {
}
class aws_ec2_volume {
**volume_attachments**: aws_ec2_volume_attachment[]
**availability_zone**: string
**volume_kms_key_id**: string
**volume_outpost_arn**: string
**volume_snapshot_id**: string
**volume_fast_restored**: boolean
**volume_multi_attach_enabled**: boolean
}
class volume {
}
class gcp_disk {
**last_attach_timestamp**: datetime
**last_detach_timestamp**: datetime
}
class kubernetes_persistent_volume {
}
class digitalocean_volume {
**description**: string
**filesystem_type**: string
**filesystem_label**: string
**ondemand_cost**: double
}
volume <|- - - aws_ec2_volume
resource <|- - - volume
volume <|- - - gcp_disk
volume <|- - - kubernetes_persistent_volume
volume <|- - - digitalocean_volume
@enduml

PlantUML version 1.2021.16(Wed Dec 08 17:25:22 UTC 2021)
(GPL source distribution)
Java Runtime: OpenJDK Runtime Environment
JVM: OpenJDK 64-Bit Server VM
Default Encoding: UTF-8
Language: en
Country: null
--></g></svg>

<svg xmlns="http://www.w3.org/2000/svg" width="810" height="599" preserveAspectRatio="none" style="width:810px;height:599px;background:#00000000"><rect width="113" height="39.789" x="7" y="326.5" fill="#3D176E" rx="2.5" ry="2.5" style="stroke:#000d19;stroke-width:1.5"/><circle cx="22" cy="346.394" r="11" fill="#E98DF7" style="stroke:#000d19;stroke-width:1"/><path d="M24.969 352.035q-.578.297-1.219.438-.64.156-1.344.156-2.5 0-3.828-1.64-1.312-1.657-1.312-4.782t1.312-4.781q1.328-1.656 3.828-1.656.703 0 1.344.156.656.156 1.219.453v2.719q-.625-.579-1.219-.844-.594-.281-1.219-.281-1.343 0-2.031 1.078-.688 1.062-.688 3.156 0 2.094.688 3.172.688 1.062 2.031 1.062.625 0 1.219-.265.594-.281 1.219-.86v2.72Z"/><text x="41" y="352.28" fill="#D9B8FF" font-family="Helvetica" font-size="17" textLength="71">resource</text><rect width="336" height="207.422" x="467" y="7" fill="#3D176E" rx="2.5" ry="2.5" style="stroke:#000d19;stroke-width:1.5"/><circle cx="554.25" cy="26.895" r="11" fill="#E98DF7" style="stroke:#000d19;stroke-width:1"/><path d="M557.219 32.535q-.578.297-1.219.438-.64.156-1.344.156-2.5 0-3.828-1.64-1.312-1.657-1.312-4.782t1.312-4.781q1.328-1.656 3.828-1.656.703 0 1.344.156.656.156 1.219.453v2.719q-.625-.578-1.219-.844-.594-.281-1.219-.281-1.343 0-2.031 1.078-.688 1.062-.688 3.156 0 2.094.688 3.172.688 1.062 2.031 1.062.625 0 1.219-.265.594-.281 1.219-.86v2.72Z"/><text x="579.75" y="32.78" fill="#D9B8FF" font-family="Helvetica" font-size="17" textLength="143">aws_ec2_volume</text><path d="M468 46.789h334" style="stroke:#000d19;stroke-width:1.5"/><text x="478" y="65.999" fill="#D9B8FF" font-family="sans-serif" font-size="11" font-weight="bold" textLength="132">volume_attachments</text><text x="610" y="65.999" fill="#D9B8FF" font-family="sans-serif" font-size="11" textLength="182">: aws_ec2_volume_attachment[]</text><text x="478" y="88.804" fill="#D9B8FF" font-family="sans-serif" font-size="11" font-weight="bold" textLength="108">availability_zone</text><text x="586" y="88.804" fill="#D9B8FF" font-family="sans-serif" font-size="11" textLength="41">: string</text><text x="478" y="111.609" fill="#D9B8FF" font-family="sans-serif" font-size="11" font-weight="bold" textLength="123">volume_kms_key_id</text><text x="601" y="111.609" fill="#D9B8FF" font-family="sans-serif" font-size="11" textLength="41">: string</text><text x="478" y="134.414" fill="#D9B8FF" font-family="sans-serif" font-size="11" font-weight="bold" textLength="128">volume_outpost_arn</text><text x="606" y="134.414" fill="#D9B8FF" font-family="sans-serif" font-size="11" textLength="41">: string</text><text x="478" y="157.218" fill="#D9B8FF" font-family="sans-serif" font-size="11" font-weight="bold" textLength="129">volume_snapshot_id</text><text x="607" y="157.218" fill="#D9B8FF" font-family="sans-serif" font-size="11" textLength="41">: string</text><text x="478" y="180.023" fill="#D9B8FF" font-family="sans-serif" font-size="11" font-weight="bold" textLength="137">volume_fast_restored</text><text x="615" y="180.023" fill="#D9B8FF" font-family="sans-serif" font-size="11" textLength="53">: boolean</text><text x="478" y="202.828" fill="#D9B8FF" font-family="sans-serif" font-size="11" font-weight="bold" textLength="189">volume_multi_attach_enabled</text><text x="667" y="202.828" fill="#D9B8FF" font-family="sans-serif" font-size="11" textLength="53">: boolean</text><rect width="105" height="39.789" x="241" y="326.5" fill="#3D176E" rx="2.5" ry="2.5" style="stroke:#000d19;stroke-width:1.5"/><circle cx="256" cy="346.394" r="11" fill="#E98DF7" style="stroke:#000d19;stroke-width:1"/><path d="M258.969 352.035q-.578.297-1.219.438-.64.156-1.344.156-2.5 0-3.828-1.64-1.312-1.657-1.312-4.782t1.312-4.781q1.328-1.656 3.828-1.656.703 0 1.344.156.656.156 1.219.453v2.719q-.625-.579-1.219-.844-.594-.281-1.219-.281-1.344 0-2.031 1.078-.688 1.062-.688 3.156 0 2.094.688 3.172.688 1.062 2.031 1.062.625 0 1.219-.265.594-.281 1.219-.86v2.72Z"/><text x="275" y="352.28" fill="#D9B8FF" font-family="Helvetica" font-size="17" textLength="63">volume</text><rect width="227" height="93.398" x="521.5" y="249" fill="#3D176E" rx="2.5" ry="2.5" style="stroke:#000d19;stroke-width:1.5"/><circle cx="590.75" cy="268.894" r="11" fill="#E98DF7" style="stroke:#000d19;stroke-width:1"/><path d="M593.719 274.535q-.578.297-1.219.438-.64.156-1.344.156-2.5 0-3.828-1.64-1.312-1.657-1.312-4.782t1.312-4.781q1.328-1.656 3.828-1.656.703 0 1.344.156.656.156 1.219.453v2.719q-.625-.579-1.219-.844-.594-.281-1.219-.281-1.343 0-2.031 1.078-.688 1.062-.688 3.156 0 2.094.688 3.172.688 1.062 2.031 1.062.625 0 1.219-.265.594-.281 1.219-.86v2.72Z"/><text x="616.25" y="274.78" fill="#D9B8FF" font-family="Helvetica" font-size="17" textLength="70">gcp_disk</text><path d="M522.5 288.789h225" style="stroke:#000d19;stroke-width:1.5"/><text x="532.5" y="308" fill="#D9B8FF" font-family="sans-serif" font-size="11" font-weight="bold" textLength="144">last_attach_timestamp</text><text x="676.5" y="308" fill="#D9B8FF" font-family="sans-serif" font-size="11" textLength="58">: datetime</text><text x="532.5" y="330.804" fill="#D9B8FF" font-family="sans-serif" font-size="11" font-weight="bold" textLength="147">last_detach_timestamp</text><text x="679.5" y="330.804" fill="#D9B8FF" font-family="sans-serif" font-size="11" textLength="58">: datetime</text><rect width="300" height="39.789" x="485" y="377.5" fill="#3D176E" rx="2.5" ry="2.5" style="stroke:#000d19;stroke-width:1.5"/><circle cx="500" cy="397.394" r="11" fill="#E98DF7" style="stroke:#000d19;stroke-width:1"/><path d="M502.969 403.035q-.578.297-1.219.438-.64.156-1.344.156-2.5 0-3.828-1.64-1.312-1.657-1.312-4.782t1.312-4.781q1.328-1.656 3.828-1.656.703 0 1.344.156.656.156 1.219.453v2.719q-.625-.579-1.219-.844-.594-.281-1.219-.281-1.344 0-2.031 1.078-.688 1.062-.688 3.156 0 2.094.688 3.172.688 1.062 2.031 1.062.625 0 1.219-.265.594-.281 1.219-.86v2.72Z"/><text x="519" y="403.28" fill="#D9B8FF" font-family="Helvetica" font-size="17" textLength="258">kubernetes_persistent_volume</text><rect width="215" height="139.008" x="527.5" y="453" fill="#3D176E" rx="2.5" ry="2.5" style="stroke:#000d19;stroke-width:1.5"/><circle cx="542.5" cy="472.894" r="11" fill="#E98DF7" style="stroke:#000d19;stroke-width:1"/><path d="M545.469 478.535q-.578.297-1.219.438-.64.156-1.344.156-2.5 0-3.828-1.64-1.312-1.657-1.312-4.782t1.312-4.781q1.328-1.656 3.828-1.656.703 0 1.344.156.656.156 1.219.453v2.719q-.625-.579-1.219-.844-.594-.281-1.219-.281-1.343 0-2.031 1.078-.688 1.062-.688 3.156 0 2.094.688 3.172.688 1.062 2.031 1.062.625 0 1.219-.265.594-.281 1.219-.86v2.72Z"/><text x="561.5" y="478.78" fill="#D9B8FF" font-family="Helvetica" font-size="17" textLength="173">digitalocean_volume</text><path d="M528.5 492.789h213" style="stroke:#000d19;stroke-width:1.5"/><text x="538.5" y="512" fill="#D9B8FF" font-family="sans-serif" font-size="11" font-weight="bold" textLength="72">description</text><text x="610.5" y="512" fill="#D9B8FF" font-family="sans-serif" font-size="11" textLength="41">: string</text><text x="538.5" y="534.804" fill="#D9B8FF" font-family="sans-serif" font-size="11" font-weight="bold" textLength="100">filesystem_type</text><text x="638.5" y="534.804" fill="#D9B8FF" font-family="sans-serif" font-size="11" textLength="41">: string</text><text x="538.5" y="557.609" fill="#D9B8FF" font-family="sans-serif" font-size="11" font-weight="bold" textLength="104">filesystem_label</text><text x="642.5" y="557.609" fill="#D9B8FF" font-family="sans-serif" font-size="11" textLength="41">: string</text><text x="538.5" y="580.414" fill="#D9B8FF" font-family="sans-serif" font-size="11" font-weight="bold" textLength="100">ondemand_cost</text><text x="638.5" y="580.414" fill="#D9B8FF" font-family="sans-serif" font-size="11" textLength="46">: double</text><path fill="none" d="M340.04 314.84c37.4-25.99 92.56-64.34 145.03-100.81M343.86 320.71l-20.41 5.67 12.42-17.16 7.99 11.49zM140.57 346.5h100.24m-100.53 7-20-7 20-7v14zM366 335.76c45.04-6.77 104.16-15.65 155.4-23.35m-154.52 30.3-20.82-3.96 18.74-9.89 2.08 13.85zm-.85 14.54c39.11 5.87 88.81 13.34 134.76 20.24M364.8 364.14l-18.74-9.89 20.82-3.96-2.08 13.85zm-13.86 11.62c47.9 24.83 117.96 61.15 176.4 91.44m-179.69-85.26-14.54-15.42 20.98 2.99-6.44 12.43z" style="stroke:#ffaf37;stroke-width:2"/></svg>
